app/static/images/icons/water_quality.svg

<svg width="48" height="48" viewBox="0 0 48 48" fill="none" xmlns="http://www.w3.org/2000/svg">
<path d="M9.88635 29.2676C9.14302 28.5959 7.47795 28.2527 6.86098 29.2822C6.78665 29.4137 6.71975 29.567 6.69001 29.7203C6.52648 29.8809 6.37038 30.0489 6.26631 30.2314C6.02101 30.6695 5.96898 31.2244 6.11021 31.7063C6.39268 32.6773 7.36645 33.3855 8.39968 33.3271C9.37345 33.276 10.1688 32.5386 10.5108 31.677C10.8601 30.7936 10.5851 29.8882 9.88635 29.2603V29.2676ZM8.92002 31.458C8.47402 32.0786 7.54485 31.918 7.35901 31.1514C7.29211 30.8885 7.33671 30.6695 7.43335 30.4577C7.75298 30.3774 8.02802 30.1146 8.37738 30.173C9.09842 30.2825 9.28425 30.9615 8.92002 31.458ZM30.8484 32.5605C29.8449 32.3196 28.8414 32.3561 27.8825 31.8012C26.7898 31.1733 25.8829 30.2971 24.7233 29.7714C23.5711 29.253 22.2926 28.8369 21.0289 29.1873C20.516 29.3333 20.018 29.567 19.5646 29.8371C19.2524 30.0197 18.9699 30.2752 18.851 30.6111C18.5982 30.7133 18.4719 31.0929 18.7766 31.2317C19.4679 31.5456 19.7132 32.6116 19.9065 33.2541C20.1815 34.1741 20.5606 34.9918 21.3337 35.6051C23.0136 36.9413 25.4146 36.8609 27.3845 36.2914C28.5961 35.941 29.607 35.2182 30.4619 34.3274C30.6774 34.3128 30.8856 34.2617 31.064 34.1449C31.6661 33.7433 31.6363 32.743 30.8558 32.5605H30.8484ZM28.1278 34.1522C27.5629 34.5245 26.9533 34.7144 26.2918 34.8604C25.2139 35.1013 24.0097 35.2182 22.9542 34.802C22.4933 34.6195 22.077 34.3201 21.7797 33.9258C21.4824 33.5316 21.3783 33.0643 21.1627 32.5751C20.858 31.8815 20.4491 31.1002 19.7876 30.7644C19.9957 30.7206 20.2187 30.6914 20.3822 30.6549C20.8951 30.5453 21.4229 30.4358 21.9507 30.4942C22.5007 30.5454 23.0359 30.8228 23.534 31.0564C24.0246 31.2828 24.5003 31.5456 24.924 31.8742C25.8606 32.5824 26.6932 33.422 27.8156 33.8528C27.9791 33.9185 28.1575 33.9769 28.3285 34.0208C28.2616 34.0719 28.1947 34.123 28.1204 34.1668L28.1278 34.1522ZM45.5516 23.8136C44.6001 23.2733 43.4628 23.558 42.5485 24.0326C41.6267 24.5145 40.7422 25.2008 39.9617 25.8798C38.9953 26.7268 38.081 27.6467 37.308 28.6543C36.9437 29.1216 36.5572 29.6473 36.2599 30.2022C34.8327 28.647 32.8777 27.581 31.0417 26.5735C28.5515 25.2081 26.0539 23.9669 23.2738 23.2733C20.2038 22.5067 17.0893 22.4555 13.9896 23.0542C11.2987 23.5799 8.61525 24.4561 6.30348 25.9382C4.99521 26.7779 3.82817 27.7709 2.71317 28.8442C1.7171 29.8079 0.758201 30.8374 0.237867 32.1151C0.104067 32.1954 0 32.3342 0 32.5021C0 32.8306 0.0446001 33.1592 0.170967 33.4586C0.312201 33.8017 0.564934 34.0719 0.765635 34.3785C1.19677 35.0356 1.67994 35.6854 2.19284 36.2914C3.12944 37.4085 4.12551 38.438 5.32971 39.285C7.60432 40.8913 10.3547 41.7236 13.105 42.1033C14.718 42.3223 16.3385 42.3953 17.9664 42.3515C19.5423 42.315 21.1404 42.2347 22.694 41.9426C25.764 41.3731 28.6481 40.0005 31.3093 38.4234C33.3609 37.2041 35.0557 35.554 36.0889 33.4732C36.1855 33.9696 36.3193 34.4588 36.52 34.9261C37.0404 36.1673 37.8283 37.3209 38.7054 38.3431C39.5454 39.3215 40.5786 40.183 41.7754 40.716C42.3998 40.9935 43.0985 41.2563 43.7973 41.2271C44.273 41.2052 44.9495 41.0811 45.2245 40.6576C45.388 40.643 45.559 40.5846 45.7151 40.4678C46.1983 40.0954 46.3618 39.431 46.5402 38.8761C46.7112 38.3285 46.845 37.7736 46.949 37.2114C47.1646 36.0578 47.2464 34.8896 47.2687 33.7141C47.2984 31.7574 47.2612 29.7933 47.2018 27.8366C47.1572 26.4128 46.949 24.5802 45.559 23.7917L45.5516 23.8136ZM13.7666 39.1097C13.6402 39.3361 13.4767 39.5551 13.328 39.7669C13.2537 39.8691 13.1868 39.964 13.0976 40.0589C13.0307 40.1319 12.8448 40.2122 13.0009 40.1684C12.9192 40.1903 12.8523 40.2268 12.7854 40.2633C10.8676 39.9494 8.96462 39.3726 7.28468 38.4453C6.02845 37.7517 4.98034 36.8609 4.01401 35.8169C3.45651 35.2109 2.90644 34.6049 2.37124 33.9769C2.1185 33.6849 1.88807 33.3928 1.59817 33.1373C1.44207 32.9913 1.28597 32.8452 1.15217 32.6773C2.70574 30.9542 4.44514 29.2822 6.39268 28.0118C8.39225 26.7049 10.5182 25.8287 12.83 25.2373C12.8523 25.2665 12.8746 25.2884 12.8969 25.3176C13.1273 25.5951 13.3206 25.9017 13.499 26.2157C13.8409 26.829 14.1011 27.4642 14.3018 28.1359C14.7403 29.5962 14.941 31.1514 15.0005 32.67C15.06 34.196 14.9187 35.7146 14.5025 37.1895C14.3166 37.832 14.0936 38.5329 13.7666 39.117V39.1097ZM33.6805 34.6268C32.9223 35.4518 32.0303 36.1527 31.064 36.7368C28.7076 38.1533 26.0688 39.2923 23.3853 39.9713C21.9804 40.3291 20.5681 40.4532 19.1186 40.5262C17.736 40.5992 16.3534 40.6065 14.9708 40.5116C15.2532 40.1027 15.4762 39.6792 15.6695 39.2047C16.1898 37.905 16.5392 36.62 16.6656 35.2255C16.7994 33.7944 16.7176 32.3415 16.4946 30.925C16.2865 29.5889 15.9743 28.2454 15.4093 27.0115C15.0971 26.3252 14.7032 25.6827 14.1828 25.1278C14.1308 25.0767 14.0788 25.0183 14.0119 24.9599C16.5466 24.4415 19.178 24.3685 21.7128 24.9234C24.307 25.4856 26.7526 26.4639 29.0421 27.7782C31.2052 29.0121 33.5764 30.1657 35.1523 32.1297C34.8104 33.0351 34.1872 34.0688 33.5256 34.7916L33.6805 34.6268ZM45.4921 28.0118C45.4772 29.7568 45.4847 31.5018 45.4772 33.2468C45.4772 34.3493 45.4475 35.4518 45.2542 36.5397C45.1576 37.1019 45.0312 37.6641 44.8677 38.2117C44.7636 38.5621 44.6001 38.9126 44.496 39.2777C44.4291 39.2777 44.3622 39.2777 44.2953 39.2777C44.1467 39.285 44.0054 39.3215 43.8642 39.3507C43.827 39.358 43.7378 39.3653 43.7081 39.3726C43.2621 39.358 42.8235 39.1827 42.4296 38.9929C41.4558 38.511 40.6232 37.8101 39.8948 37.0289C39.1514 36.2257 38.5047 35.3277 38.0067 34.3566C37.7317 33.8236 37.4938 33.2906 37.3303 32.7138C37.2708 32.4948 37.2336 32.2465 37.1742 32.0056C37.2485 31.7428 37.2336 31.458 37.0701 31.2244C37.0701 31.2244 37.0701 31.2244 37.0701 31.2171C37.3897 30.7425 37.7019 30.2679 38.0736 29.8298C38.7129 29.0851 39.4116 28.3988 40.1549 27.749C40.9206 27.0772 41.7457 26.4858 42.5782 25.909C43.1134 25.5367 44.0352 24.9088 44.6819 25.1716C44.838 25.2373 44.9792 25.3834 45.0535 25.4929C45.2171 25.7411 45.2765 25.9163 45.3509 26.223C45.4921 26.7925 45.507 27.3839 45.4995 28.0118H45.4921ZM47.0457 17.5272C45.4921 16.9285 43.8716 16.4831 42.318 15.8771C40.5935 15.1981 38.8764 15.6362 37.2262 16.2787C36.8397 16.4247 36.4606 16.5707 36.074 16.7094C35.628 16.8628 35.1969 17.0818 34.7435 17.2059C33.9704 17.425 33.0561 17.3374 32.2905 17.1256C30.6477 16.6656 29.0644 15.7822 27.3399 15.6289C26.2694 15.5339 25.147 15.6508 24.084 15.7822C23.5786 15.8406 23.0582 15.899 22.5602 16.0085C21.8466 16.1765 21.1702 16.5123 20.5012 16.7971C18.9922 17.4396 17.4386 18.2208 15.8182 17.4469C15.4242 17.257 14.9931 17.1548 14.5842 16.9942C14.22 16.8555 13.8632 16.6802 13.5064 16.5269C12.6664 16.1765 11.7819 15.899 10.875 15.7311C9.87149 15.5412 8.86055 15.4682 7.84218 15.6216C6.93531 15.753 6.08048 16.118 5.27024 16.5269C4.49718 16.9139 3.75384 17.3666 2.95104 17.6951C2.54964 17.8557 2.12594 17.9653 1.70967 18.0821C1.30827 18.1989 0.817668 18.2792 0.423701 18.104C0.141234 17.9799 -0.0966335 18.2792 0.0966335 18.5202C1.10757 19.776 3.09227 19.1481 4.34108 18.6516C5.79801 18.0675 7.15088 17.2424 8.77878 17.257C10.5182 17.2789 12.0941 18.0018 13.6699 18.6443C14.0342 18.7903 14.4133 18.9436 14.7924 19.0459C15.2532 19.17 15.7736 19.1773 16.2567 19.2138C17.1562 19.2795 18.0259 19.1262 18.8807 18.8487C19.6612 18.5932 20.412 18.25 21.1702 17.9361C21.5344 17.7827 21.9135 17.6659 22.3 17.571C22.471 17.5272 22.642 17.4907 22.8204 17.4615C22.865 17.4615 22.917 17.4542 22.9616 17.4469C24.0692 17.352 25.199 17.3666 26.3066 17.4031C26.5519 17.4104 26.7898 17.4323 27.0351 17.4469C27.0648 17.4469 27.0797 17.4469 27.0946 17.4469C27.0946 17.4469 27.0946 17.4469 27.102 17.4469C27.2507 17.4907 27.4068 17.5126 27.5554 17.5564C28.44 17.79 29.2874 18.1332 30.1274 18.4764C31.7999 19.1481 33.8961 19.8052 35.628 18.9363C37.308 18.0967 38.8987 16.5123 40.9429 16.819C41.9241 16.9723 42.9201 17.4834 43.827 17.8776C44.7859 18.2938 45.7523 18.6808 46.7037 19.1043C47.0754 19.2722 47.4396 19.2065 47.6775 18.9728C48.3762 18.4325 47.7667 17.2935 47.0234 17.5199L47.0457 17.5272ZM22.8427 17.4542C22.9616 17.4396 22.8798 17.4542 22.8427 17.4542ZM4.35594 13.8766C5.81288 13.2924 7.16575 12.4674 8.79365 12.482C10.5331 12.5039 12.1089 13.2267 13.6848 13.8693C14.049 14.0153 14.4281 14.1686 14.8072 14.2708C15.2681 14.3949 15.7884 14.4022 16.2716 14.4387C17.171 14.5045 18.0407 14.3511 18.8956 14.0737C19.6761 13.8181 20.4268 13.475 21.185 13.161C21.5493 13.0077 21.9284 12.8909 22.3149 12.796C22.4859 12.7522 22.6568 12.7156 22.8352 12.6864C22.8798 12.6864 22.9319 12.6791 22.9765 12.6718C24.084 12.5769 25.2139 12.5915 26.3215 12.628C26.5668 12.6353 26.8047 12.6572 27.05 12.6718C27.0797 12.6718 27.0946 12.6718 27.1094 12.6718C27.1094 12.6718 27.1094 12.6718 27.1169 12.6718C27.2655 12.7156 27.4216 12.7376 27.5703 12.7814C28.4549 13.015 29.3023 13.3582 30.1422 13.7013C31.8147 14.373 33.9109 15.0302 35.6429 14.1613C37.3228 13.3217 38.9136 11.7373 40.9577 12.0439C41.9389 12.1973 42.935 12.7083 43.8419 13.1026C44.8008 13.5188 45.7671 13.9058 46.7186 14.3292C47.0903 14.4972 47.4545 14.4314 47.6924 14.1978C48.3911 13.6575 47.7816 12.5185 47.0382 12.7449C45.4847 12.1462 43.8642 11.7008 42.3106 11.0948C40.5861 10.4157 38.869 10.8538 37.2188 11.4963C36.8322 11.6424 36.4531 11.7884 36.0666 11.9271C35.6206 12.0804 35.1895 12.2995 34.736 12.4236C33.963 12.6426 33.0487 12.555 32.283 12.3433C30.6403 11.8833 29.057 10.9999 27.3324 10.8465C26.262 10.7516 25.1396 10.8684 24.0766 10.9999C23.5711 11.0583 23.0508 11.1167 22.5528 11.2262C21.8392 11.3941 21.1627 11.73 20.4937 12.0147C18.9848 12.6572 17.4312 13.4385 15.8107 12.6645C15.4168 12.4747 14.9856 12.3725 14.5768 12.2119C14.2126 12.0731 13.8558 11.8979 13.499 11.7446C12.659 11.3941 11.7744 11.1167 10.8676 10.9487C9.86405 10.7589 8.85312 10.6859 7.83475 10.8392C6.92788 10.9706 6.07305 11.3357 5.26281 11.7446C4.48974 12.1315 3.74641 12.5842 2.94361 12.9128C2.54221 13.0734 2.1185 13.1829 1.70224 13.2998C1.30084 13.4166 0.810235 13.4969 0.416267 13.3217C0.1338 13.1975 -0.104067 13.4969 0.0892002 13.7378C1.10014 14.9936 3.08484 14.3657 4.33364 13.8693L4.35594 13.8766ZM22.8427 12.6864C22.9616 12.6718 22.8798 12.6864 22.8427 12.6864ZM4.35594 9.12342C5.81288 8.53932 7.16575 7.71428 8.79365 7.72888C10.5331 7.75079 12.1089 8.47361 13.6848 9.11612C14.049 9.26215 14.4281 9.41548 14.8072 9.51769C15.2681 9.64181 15.7884 9.64912 16.2716 9.68562C17.171 9.75133 18.0407 9.59801 18.8956 9.32056C19.6761 9.06501 20.4268 8.72185 21.185 8.4079C21.5493 8.25457 21.9284 8.13775 22.3149 8.04284C22.4859 7.99903 22.6568 7.96252 22.8352 7.93332C22.8798 7.93332 22.9319 7.92602 22.9765 7.91871C24.084 7.8238 25.2139 7.8384 26.3215 7.87491C26.5668 7.88221 26.8047 7.90411 27.05 7.91871C27.0797 7.91871 27.0946 7.91871 27.1094 7.91871C27.1094 7.91871 27.1094 7.91871 27.1169 7.91871C27.2655 7.96252 27.4216 7.98443 27.5703 8.02823C28.4549 8.26187 29.3023 8.60503 30.1422 8.94819C31.8147 9.61991 33.9109 10.277 35.6429 9.40817C37.3228 8.56853 38.9136 6.98415 40.9577 7.29081C41.9389 7.44413 42.935 7.95522 43.8419 8.34949C44.8008 8.76566 45.7671 9.15263 46.7186 9.5761C47.0903 9.74403 47.4545 9.67832 47.6924 9.44468C48.3911 8.90439 47.7816 7.76539 47.0382 7.99173C45.4847 7.39302 43.8642 6.94765 42.3106 6.34164C40.5861 5.66262 38.869 6.1007 37.2188 6.74321C36.8322 6.88924 36.4531 7.03526 36.0666 7.17399C35.6206 7.32731 35.1895 7.54635 34.736 7.67047C33.963 7.88951 33.0487 7.80189 32.283 7.59016C30.6403 7.13018 29.057 6.24672 27.3324 6.0934C26.262 5.99848 25.1396 6.1153 24.0766 6.24672C23.5711 6.30513 23.0508 6.36354 22.5528 6.47306C21.8392 6.64099 21.1627 6.97685 20.4937 7.2616C18.9848 7.90411 17.4312 8.68535 15.8107 7.91141C15.4168 7.72158 14.9856 7.61936 14.5768 7.45874C14.2126 7.32001 13.8558 7.14478 13.499 6.99145C12.659 6.64099 11.7744 6.36354 10.8676 6.19562C9.87892 6.02039 8.86798 5.94737 7.85705 6.0934C6.95018 6.22482 6.09535 6.58988 5.28511 6.99876C4.51204 7.38572 3.76871 7.8384 2.96591 8.16696C2.56451 8.32759 2.1408 8.43711 1.72454 8.55393C1.32314 8.67075 0.832535 8.75106 0.438568 8.57583C0.1561 8.45171 -0.0817668 8.75106 0.1115 8.992C1.12244 10.2478 3.10714 9.61991 4.35594 9.12342ZM22.8427 7.93332C22.9616 7.91872 22.8798 7.93332 22.8427 7.93332Z" fill="black"/>
</svg>

<?xml version="1.0" encoding="UTF-8"?>
<svg width="48" height="48" fill="none" version="1.1" viewBox="0 0 48 48" xmlns="http://www.w3.org/2000/svg">
 <path d="m9.8864 29.268c-0.74333-0.6717-2.4084-1.0149-3.0254 0.0146-0.07433 0.1315-0.14123 0.2848-0.17097 0.4381-0.16353 0.1606-0.31963 0.3286-0.4237 0.5111-0.2453 0.4381-0.29733 0.993-0.1561 1.4749 0.28247 0.971 1.2562 1.6792 2.2895 1.6208 0.97377-0.0511 1.7691-0.7885 2.1111-1.6501 0.3493-0.8834 0.0743-1.7888-0.62445-2.4167v0.0073zm-0.96633 2.1904c-0.446 0.6206-1.3752 0.46-1.561-0.3066-0.0669-0.2629-0.0223-0.4819 0.07434-0.6937 0.31963-0.0803 0.59467-0.3431 0.94403-0.2847 0.72104 0.1095 0.90687 0.7885 0.54264 1.285zm21.928 1.1025c-1.0035-0.2409-2.007-0.2044-2.9659-0.7593-1.0927-0.6279-1.9996-1.5041-3.1592-2.0298-1.1522-0.5184-2.4307-0.9345-3.6944-0.5841-0.5129 0.146-1.0109 0.3797-1.4643 0.6498-0.3122 0.1826-0.5947 0.4381-0.7136 0.774-0.2528 0.1022-0.3791 0.4818-0.0744 0.6206 0.6913 0.3139 0.9366 1.3799 1.1299 2.0224 0.275 0.92 0.6541 1.7377 1.4272 2.351 1.6799 1.3362 4.0809 1.2558 6.0508 0.6863 1.2116-0.3504 2.2225-1.0732 3.0774-1.964 0.2155-0.0146 0.4237-0.0657 0.6021-0.1825 0.6021-0.4016 0.5723-1.4019-0.2082-1.5844h-0.0074zm-2.7206 1.5917c-0.5649 0.3723-1.1745 0.5622-1.836 0.7082-1.0779 0.2409-2.2821 0.3578-3.3376-0.0584-0.4609-0.1825-0.8772-0.4819-1.1745-0.8762-0.2973-0.3942-0.4014-0.8615-0.617-1.3507-0.3047-0.6936-0.7136-1.4749-1.3751-1.8107 0.2081-0.0438 0.4311-0.073 0.5946-0.1095 0.5129-0.1096 1.0407-0.2191 1.5685-0.1607 0.55 0.0512 1.0852 0.3286 1.5833 0.5622 0.4906 0.2264 0.9663 0.4892 1.39 0.8178 0.9366 0.7082 1.7692 1.5478 2.8916 1.9786 0.1635 0.0657 0.3419 0.1241 0.5129 0.168-0.0669 0.0511-0.1338 0.1022-0.2081 0.146l0.0074-0.0146zm17.424-10.339c-0.9515-0.5403-2.0888-0.2556-3.0031 0.219-0.9218 0.4819-1.8063 1.1682-2.5868 1.8472-0.9664 0.847-1.8807 1.7669-2.6537 2.7745-0.3643 0.4673-0.7508 0.993-1.0481 1.5479-1.4272-1.5552-3.3822-2.6212-5.2182-3.6287-2.4902-1.3654-4.9878-2.6066-7.7679-3.3002-3.07-0.7666-6.1845-0.8178-9.2842-0.2191-2.6909 0.5257-5.3744 1.4019-7.6861 2.884-1.3083 0.8397-2.4753 1.8327-3.5903 2.906-0.99607 0.9637-1.955 1.9932-2.4753 3.2709-0.1338 0.0803-0.23787 0.2191-0.23787 0.387 0 0.3285 0.0446 0.6571 0.17097 0.9565 0.14123 0.3431 0.39397 0.6133 0.59467 0.9199 0.43114 0.6571 0.9143 1.3069 1.4272 1.9129 0.9366 1.1171 1.9327 2.1466 3.1369 2.9936 2.2746 1.6063 5.025 2.4386 7.7753 2.8183 1.613 0.219 3.2335 0.292 4.8614 0.2482 1.5759-0.0365 3.174-0.1168 4.7276-0.4089 3.07-0.5695 5.9541-1.9421 8.6153-3.5192 2.0516-1.2193 3.7464-2.8694 4.7796-4.9502 0.0966 0.4964 0.2304 0.9856 0.4311 1.4529 0.5204 1.2412 1.3083 2.3948 2.1854 3.417 0.84 0.9784 1.8732 1.8399 3.07 2.3729 0.6244 0.2775 1.3231 0.5403 2.0219 0.5111 0.4757-0.0219 1.1522-0.146 1.4272-0.5695 0.1635-0.0146 0.3345-0.073 0.4906-0.1898 0.4832-0.3724 0.6467-1.0368 0.8251-1.5917 0.171-0.5476 0.3048-1.1025 0.4088-1.6647 0.2156-1.1536 0.2974-2.3218 0.3197-3.4973 0.0297-1.9567-0.0075-3.9208-0.0669-5.8775-0.0446-1.4238-0.2528-3.2564-1.6428-4.0449l-0.0074 0.0219zm-31.785 15.296c-0.1264 0.2264-0.2899 0.4454-0.4386 0.6572-0.0743 0.1022-0.1412 0.1971-0.2304 0.292-0.0669 0.073-0.2528 0.1533-0.0967 0.1095-0.0817 0.0219-0.1486 0.0584-0.2155 0.0949-1.9178-0.3139-3.8208-0.8907-5.5007-1.818-1.2562-0.6936-2.3043-1.5844-3.2707-2.6284-0.5575-0.606-1.1076-1.212-1.6428-1.84-0.25274-0.292-0.48317-0.5841-0.77307-0.8396-0.1561-0.146-0.3122-0.2921-0.446-0.46 1.5536-1.7231 3.293-3.3951 5.2405-4.6655 1.9996-1.3069 4.1255-2.1831 6.4373-2.7745 0.0223 0.0292 0.0446 0.0511 0.0669 0.0803 0.2304 0.2775 0.4237 0.5841 0.6021 0.8981 0.3419 0.6133 0.6021 1.2485 0.8028 1.9202 0.4385 1.4603 0.6392 3.0155 0.6987 4.5341 0.0595 1.526-0.0818 3.0446-0.498 4.5195-0.1859 0.6425-0.4089 1.3434-0.7359 1.9275v-0.0073zm19.914-4.4829c-0.7582 0.825-1.6502 1.5259-2.6165 2.11-2.3564 1.4165-4.9952 2.5555-7.6787 3.2345-1.4049 0.3578-2.8172 0.4819-4.2667 0.5549-1.3826 0.073-2.7652 0.0803-4.1478-0.0146 0.2824-0.4089 0.5054-0.8324 0.6987-1.3069 0.5203-1.2997 0.8697-2.5847 0.9961-3.9792 0.1338-1.4311 0.052-2.884-0.171-4.3005-0.2081-1.3361-0.5203-2.6796-1.0853-3.9135-0.3122-0.6863-0.7061-1.3288-1.2265-1.8837-0.052-0.0511-0.104-0.1095-0.1709-0.1679 2.5347-0.5184 5.1661-0.5914 7.7009-0.0365 2.5942 0.5622 5.0398 1.5405 7.3293 2.8548 2.1631 1.2339 4.5343 2.3875 6.1102 4.3515-0.3419 0.9054-0.9651 1.9391-1.6267 2.6619l0.1549-0.1648zm11.812-6.615c-0.0149 1.745-0.0074 3.49-0.0149 5.235 0 1.1025-0.0297 2.205-0.223 3.2929-0.0966 0.5622-0.223 1.1244-0.3865 1.672-0.1041 0.3504-0.2676 0.7009-0.3717 1.066h-0.2007c-0.1486 0.0073-0.2899 0.0438-0.4311 0.073-0.0372 0.0073-0.1264 0.0146-0.1561 0.0219-0.446-0.0146-0.8846-0.1899-1.2785-0.3797-0.9738-0.4819-1.8064-1.1828-2.5348-1.964-0.7434-0.8032-1.3901-1.7012-1.8881-2.6723-0.275-0.533-0.5129-1.066-0.6764-1.6428-0.0595-0.219-0.0967-0.4673-0.1561-0.7082 0.0743-0.2628 0.0594-0.5476-0.1041-0.7812v-0.0073c0.3196-0.4746 0.6318-0.9492 1.0035-1.3873 0.6393-0.7447 1.338-1.431 2.0813-2.0808 0.7657-0.6718 1.5908-1.2632 2.4233-1.84 0.5352-0.3723 1.457-1.0002 2.1037-0.7374 0.1561 0.0657 0.2973 0.2118 0.3716 0.3213 0.1636 0.2482 0.223 0.4234 0.2974 0.7301 0.1412 0.5695 0.1561 1.1609 0.1486 1.7888h-0.0074zm1.5536-10.485c-1.5536-0.5987-3.1741-1.0441-4.7277-1.6501-1.7245-0.679-3.4416-0.2409-5.0918 0.4016-0.3865 0.146-0.7656 0.292-1.1522 0.4307-0.446 0.1534-0.8771 0.3724-1.3305 0.4965-0.7731 0.2191-1.6874 0.1315-2.453-0.0803-1.6428-0.46-3.2261-1.3434-4.9506-1.4967-1.0705-0.095-2.1929 0.0219-3.2559 0.1533-0.5054 0.0584-1.0258 0.1168-1.5238 0.2263-0.7136 0.168-1.39 0.5038-2.059 0.7886-1.509 0.6425-3.0626 1.4237-4.683 0.6498-0.394-0.1899-0.8251-0.2921-1.234-0.4527-0.3642-0.1387-0.721-0.314-1.0778-0.4673-0.84-0.3504-1.7245-0.6279-2.6314-0.7958-1.0035-0.1899-2.0144-0.2629-3.0328-0.1095-0.90687 0.1314-1.7617 0.4964-2.5719 0.9053-0.77306 0.387-1.5164 0.8397-2.3192 1.1682-0.4014 0.1606-0.8251 0.2702-1.2414 0.387-0.4014 0.1168-0.892 0.1971-1.286 0.0219-0.28247-0.1241-0.52033 0.1752-0.32707 0.4162 1.0109 1.2558 2.9956 0.6279 4.2444 0.1314 1.4569-0.5841 2.8098-1.4092 4.4377-1.3946 1.7394 0.0219 3.3153 0.7448 4.8911 1.3873 0.3643 0.146 0.7434 0.2993 1.1225 0.4016 0.4608 0.1241 0.9812 0.1314 1.4643 0.1679 0.8995 0.0657 1.7692-0.0876 2.624-0.3651 0.7805-0.2555 1.5313-0.5987 2.2895-0.9126 0.3642-0.1534 0.7433-0.2702 1.1298-0.3651 0.171-0.0438 0.342-0.0803 0.5204-0.1095 0.0446 0 0.0966-0.0073 0.1412-0.0146 1.1076-0.0949 2.2374-0.0803 3.345-0.0438 0.2453 0.0073 0.4832 0.0292 0.7285 0.0438h0.0595 0.0074c0.1487 0.0438 0.3048 0.0657 0.4534 0.1095 0.8846 0.2336 1.732 0.5768 2.572 0.92 1.6725 0.6717 3.7687 1.3288 5.5006 0.4599 1.68-0.8396 3.2707-2.424 5.3149-2.1173 0.9812 0.1533 1.9772 0.6644 2.8841 1.0586 0.9589 0.4162 1.9253 0.8032 2.8767 1.2267 0.3717 0.1679 0.7359 0.1022 0.9738-0.1315 0.6987-0.5403 0.0892-1.6793-0.6541-1.4529l0.0223 0.0073zm-24.203-0.073c0.1189-0.0146 0.0371 0 0 0zm-18.487-3.5776c1.4569-0.5842 2.8098-1.4092 4.4377-1.3946 1.7394 0.0219 3.3152 0.7447 4.8912 1.3873 0.3642 0.146 0.7433 0.2993 1.1224 0.4015 0.4609 0.1241 0.9812 0.1314 1.4644 0.1679 0.8994 0.0658 1.7691-0.0876 2.624-0.365 0.7805-0.2556 1.5312-0.5987 2.2894-0.9127 0.3643-0.1533 0.7434-0.2701 1.1299-0.365 0.171-0.0438 0.3419-0.0804 0.5203-0.1096 0.0446 0 0.0967-0.0073 0.1413-0.0146 1.1075-0.0949 2.2374-0.0803 3.345-0.0438 0.2453 0.0073 0.4832 0.0292 0.7285 0.0438h0.0594 0.0075c0.1486 0.0438 0.3047 0.0658 0.4534 0.1096 0.8846 0.2336 1.732 0.5768 2.5719 0.9199 1.6725 0.6717 3.7687 1.3289 5.5007 0.46 1.6799-0.8396 3.2707-2.424 5.3148-2.1174 0.9812 0.1534 1.9773 0.6644 2.8842 1.0587 0.9589 0.4162 1.9252 0.8032 2.8767 1.2266 0.3717 0.168 0.7359 0.1022 0.9738-0.1314 0.6987-0.5403 0.0892-1.6793-0.6542-1.4529-1.5535-0.5987-3.174-1.0441-4.7276-1.6501-1.7245-0.6791-3.4416-0.241-5.0918 0.4015-0.3866 0.1461-0.7657 0.2921-1.1522 0.4308-0.446 0.1533-0.8771 0.3724-1.3306 0.4965-0.773 0.219-1.6873 0.1314-2.453-0.0803-1.6427-0.46-3.226-1.3434-4.9506-1.4968-1.0704-0.0949-2.1928 0.0219-3.2558 0.1534-0.5055 0.0584-1.0258 0.1168-1.5238 0.2263-0.7136 0.1679-1.3901 0.5038-2.0591 0.7885-1.5089 0.6425-3.0625 1.4238-4.683 0.6498-0.3939-0.1898-0.8251-0.292-1.2339-0.4526-0.3642-0.1388-0.721-0.314-1.0778-0.4673-0.84-0.3505-1.7246-0.6279-2.6314-0.7959-1.0036-0.1898-2.0145-0.2628-3.0328-0.1095-0.90687 0.1314-1.7617 0.4965-2.5719 0.9054-0.77307 0.3869-1.5164 0.8396-2.3192 1.1682-0.4014 0.1606-0.82511 0.2701-1.2414 0.387-0.4014 0.1168-0.892 0.1971-1.286 0.0219-0.28247-0.1242-0.52033 0.1752-0.32707 0.4161 1.0109 1.2558 2.9956 0.6279 4.2444 0.1315l0.0223 0.0073zm18.487-1.1902c0.1189-0.0146 0.0371 0 0 0zm-18.487-3.563c1.4569-0.5841 2.8098-1.4091 4.4377-1.3945 1.7394 0.02191 3.3152 0.74473 4.8912 1.3872 0.3642 0.14603 0.7433 0.29936 1.1224 0.40157 0.4609 0.12412 0.9812 0.13143 1.4644 0.16793 0.8994 0.06571 1.7691-0.08761 2.624-0.36506 0.7805-0.25555 1.5312-0.59871 2.2894-0.91266 0.3643-0.15333 0.7434-0.27015 1.1299-0.36506 0.171-0.04381 0.3419-0.08032 0.5203-0.10952 0.0446 0 0.0967-0.0073 0.1413-0.01461 1.1075-0.09491 2.2374-0.08031 3.345-0.0438 0.2453 0.0073 0.4832 0.0292 0.7285 0.0438h0.0594 0.0075c0.1486 0.04381 0.3047 0.06572 0.4534 0.10952 0.8846 0.23364 1.732 0.5768 2.5719 0.91996 1.6725 0.67172 3.7687 1.3288 5.5007 0.45998 1.6799-0.83964 3.2707-2.424 5.3148-2.1174 0.9812 0.15332 1.9773 0.66441 2.8842 1.0587 0.9589 0.41617 1.9252 0.80314 2.8767 1.2266 0.3717 0.16793 0.7359 0.10222 0.9738-0.13142 0.6987-0.54029 0.0892-1.6793-0.6542-1.453-1.5535-0.59871-3.174-1.0441-4.7276-1.6501-1.7245-0.67902-3.4416-0.24094-5.0918 0.40157-0.3866 0.14603-0.7657 0.29205-1.1522 0.43078-0.446 0.15332-0.8771 0.37236-1.3306 0.49648-0.773 0.21904-1.6873 0.13142-2.453-0.08031-1.6427-0.45998-3.226-1.3434-4.9506-1.4968-1.0704-0.09492-2.1928 0.0219-3.2558 0.15332-0.5055 0.05841-1.0258 0.11682-1.5238 0.22634-0.7136 0.16793-1.3901 0.50379-2.0591 0.78854-1.5089 0.64251-3.0625 1.4238-4.683 0.64981-0.3939-0.18983-0.8251-0.29205-1.2339-0.45267-0.3642-0.13873-0.721-0.31396-1.0778-0.46729-0.84-0.35046-1.7246-0.62791-2.6314-0.79583-0.98868-0.17523-1.9996-0.24825-3.0106-0.10222-0.90687 0.13142-1.7617 0.49648-2.5719 0.90536-0.77307 0.38696-1.5164 0.83964-2.3192 1.1682-0.4014 0.16063-0.82511 0.27015-1.2414 0.38697-0.4014 0.11682-0.892 0.19713-1.286 0.0219-0.28247-0.12412-0.52033 0.17523-0.32707 0.41617 1.0109 1.2558 2.9956 0.62791 4.2444 0.13142zm18.487-1.1901c0.1189-0.0146 0.0371 0 0 0z" fill="#000"/>
</svg>
